packages/design-system/src/icons/assets/btn_download.svg

<svg width="50" height="50" viewBox="0 0 50 50" fill="none" xmlns="http://www.w3.org/2000/svg">
<rect x="0.5" y="0.5" width="49" height="49" rx="9.5" fill="white"/>
<rect x="0.5" y="0.5" width="49" height="49" rx="9.5" stroke="#D9DADD"/>
<path d="M25 28.575C24.8667 28.575 24.7417 28.554 24.625 28.512C24.5083 28.4707 24.4 28.4 24.3 28.3L20.7 24.7C20.5167 24.5167 20.425 24.2833 20.425 24C20.425 23.7167 20.5167 23.4833 20.7 23.3C20.8833 23.1167 21.1207 23.0207 21.412 23.012C21.704 23.004 21.9417 23.0917 22.125 23.275L24 25.15V18C24 17.7167 24.096 17.479 24.288 17.287C24.4793 17.0957 24.7167 17 25 17C25.2833 17 25.521 17.0957 25.713 17.287C25.9043 17.479 26 17.7167 26 18V25.15L27.875 23.275C28.0583 23.0917 28.296 23.004 28.588 23.012C28.8793 23.0207 29.1167 23.1167 29.3 23.3C29.4833 23.4833 29.575 23.7167 29.575 24C29.575 24.2833 29.4833 24.5167 29.3 24.7L25.7 28.3C25.6 28.4 25.4917 28.4707 25.375 28.512C25.2583 28.554 25.1333 28.575 25 28.575ZM19 33C18.45 33 17.9793 32.8043 17.588 32.413C17.196 32.021 17 31.55 17 31V29C17 28.7167 17.0957 28.479 17.287 28.287C17.479 28.0957 17.7167 28 18 28C18.2833 28 18.521 28.0957 18.713 28.287C18.9043 28.479 19 28.7167 19 29V31H31V29C31 28.7167 31.096 28.479 31.288 28.287C31.4793 28.0957 31.7167 28 32 28C32.2833 28 32.5207 28.0957 32.712 28.287C32.904 28.479 33 28.7167 33 29V31C33 31.55 32.8043 32.021 32.413 32.413C32.021 32.8043 31.55 33 31 33H19Z" fill="#93959D"/>
</svg>

<svg xmlns="http://www.w3.org/2000/svg" width="50" height="50" fill="none"><rect width="49" height="49" x=".5" y=".5" fill="#fff" rx="9.5"/><rect width="49" height="49" x=".5" y=".5" stroke="#D9DADD" rx="9.5"/><path fill="#93959D" d="M25 28.575a1.1 1.1 0 0 1-.375-.063.9.9 0 0 1-.325-.212l-3.6-3.6a.95.95 0 0 1-.275-.7q0-.425.275-.7.274-.275.712-.288t.713.263L24 25.15V18q0-.425.288-.713A.97.97 0 0 1 25 17a.97.97 0 0 1 .713.287A.97.97 0 0 1 26 18v7.15l1.875-1.875q.275-.275.713-.263.437.014.712.288a.95.95 0 0 1 .275.7.95.95 0 0 1-.275.7l-3.6 3.6q-.15.15-.325.212a1.1 1.1 0 0 1-.375.063M19 33q-.825 0-1.412-.587A1.93 1.93 0 0 1 17 31v-2a.97.97 0 0 1 .287-.713A.97.97 0 0 1 18 28a.97.97 0 0 1 .713.287A.97.97 0 0 1 19 29v2h12v-2q0-.425.288-.713A.97.97 0 0 1 32 28q.424 0 .712.287.288.288.288.713v2q0 .825-.587 1.413A1.93 1.93 0 0 1 31 33z"/></svg>
